X:049 
T:Elm Grove*, The 
S:Grier MS
F:file ID: cre.4/049elm_g
B:CRE4.070: gan ainm
L:1/8
M:12/8
Q:160
R:jig
K:G
e|dBG G2B dBG Bcd|e2c d2B A2G FED|
[1 "3"dBG G2B dBG Bcd|ege faf g3 gf :|
[2 "3a"dBG G2B dBG Bcd|ege faf g3 de ||
f|"5"gbg faf ege d2B|c2A B2G A2G FED|
"7"gbg faf ege d2f|ege faf g3 def|
"9"gab fga efg d2B|c2A B2G A2G FED|
"11"dBG G2B dBG Bcd|ege faf g3g3|]

%%%


